static/images/illustration.svg

<svg width="231" height="343" viewBox="0 0 231 343" fill="none" xmlns="http://www.w3.org/2000/svg">
<path d="M223.925 324.424V317.924H226.425L226.925 326.424C226.425 327.924 224.425 328.924 222.425 330.424C220.425 331.924 220.425 328.424 220.925 328.424C221.325 328.424 223.091 325.758 223.925 324.424Z" stroke="black" stroke-width="2"/>
<path d="M223.925 328.424V321.924H226.425L226.925 330.424C226.425 331.924 224.425 332.924 222.425 334.424C220.425 335.924 220.425 332.424 220.925 332.424C221.325 332.424 223.091 329.758 223.925 328.424Z" fill="white" stroke="black" stroke-width="2"/>
<path d="M223.647 332.924V326.424H226.147L226.647 334.924C226.147 336.424 224.147 337.424 222.147 338.924C220.147 340.424 220.147 336.924 220.647 336.924C221.047 336.924 222.813 334.258 223.647 332.924Z" fill="white" stroke="black" stroke-width="2"/>
<path d="M226.647 302.924C227.847 293.724 215.147 211.924 208.647 170.924C203.48 173.758 193.747 179.624 196.147 180.424C198.547 181.224 208.814 262.091 213.647 303.424L210.147 317.924V329.924C210.647 331.091 211.647 332.924 214.147 329.924L214.192 329.765C215.182 326.303 216.303 322.379 215.647 319.424L222.147 322.424C223.48 325.758 225.647 330.924 225.647 332.424C225.647 333.319 224.814 336.758 225.147 339.924C225.814 340.924 226.147 341.924 227.647 340.424C228.922 339.149 229.647 334.091 229.647 331.424V319.424L226.647 302.924Z" fill="white" stroke="black" stroke-width="2"/>
<path d="M210.647 167.424C213.847 160.224 196.647 136.091 187.647 124.924L190.147 181.924C195.647 180.091 207.447 174.624 210.647 167.424Z" fill="white" stroke="black" stroke-width="2"/>
<path d="M37.6469 166.924C37.6469 169.485 35.8135 176.091 36.6468 180.924C37.6468 184.424 58.1469 228.924 64.6469 226.924C69.8468 225.324 81.3135 188.258 85.6469 169.424C90.8135 161.258 106.147 151.924 99.1469 176.424C92.0593 201.231 74.6469 242.924 71.1469 244.424C67.6469 245.924 64.1469 245.424 63.6469 245.424C55.0306 245.424 32.9802 207.258 23.1469 187.424C16.1469 183.924 8.14685 171.424 1.64685 166.424C-0.125536 165.061 2.14689 162.424 3.64681 163.424C6.14678 165.091 9.14681 168.424 12.1468 170.424C13.0122 171.001 14.6468 170.424 14.1468 168.924C9.1468 161.424 4.54681 156.024 4.14681 154.424C3.74681 152.824 5.14681 151.174 6.64681 151.924C7.64683 152.424 17.7674 166.051 18.1469 165.924C19.6469 165.424 19.6469 165.424 19.6469 164.424C19.6469 163.01 9.64686 148.924 8.64686 146.924C7.64686 144.924 11.1469 143.424 12.1469 144.424C13.1469 145.424 18.1469 155.424 23.1469 161.924C23.8996 162.903 25.1469 162.687 25.1469 160.424C25.1469 159.424 22.6469 153.424 18.6469 145.924C18.1469 143.424 20.6469 142.424 22.1469 143.924C22.7796 144.873 26.6469 151.924 29.1469 158.097C30.8822 161.03 32.3184 163.081 32.6469 162.424C33.6469 160.424 35.189 152.382 36.6468 150.924C39.1468 148.424 43.6468 149.424 41.1468 151.924C38.6468 154.424 37.6469 162.424 37.6469 166.924Z" fill="white" stroke="black" stroke-width="2"/>
<path d="M79.6469 167.924C76.8469 163.924 95.4801 136.258 108.647 122.924L104.647 164.924C104.647 169.424 105.147 177.487 101.147 177.924C97.1469 178.362 85.0264 175.609 79.6469 167.924Z" fill="white" stroke="black" stroke-width="2"/>
<path d="M137.147 89.9242V115.424C142.314 118.091 153.047 120.724 154.647 115.924C156.247 111.124 155.314 94.7576 154.647 89.9242H137.147Z" fill="white" stroke="black" stroke-width="2"/>
<path d="M110.647 116.924C98.6468 128.924 100.333 270.167 102.5 335L193 321C190 253.167 189.814 120.619 186.647 116.924C184.025 113.866 173.052 110.863 159.147 109.424C156.147 113.67 150.024 114.01 146.147 113.924C142.086 113.834 136.647 113.565 134.147 109.424C123.977 110.283 115.483 112.088 110.647 116.924Z" fill="white" stroke="black" stroke-width="2" stroke-linecap="round" stroke-linejoin="round"/>
<path d="M179.147 46.4242C177.547 45.2242 175.48 48.2575 174.647 49.9242C174.147 53.5909 173.247 61.7242 173.647 64.9242C174.147 68.9242 177.147 67.4242 177.147 64.9242C177.147 62.4242 180.147 56.4242 180.647 54.9242C181.147 53.4242 181.147 47.9242 179.147 46.4242Z" fill="white" stroke="black" stroke-width="2"/>
<path d="M112.147 48.1981C113.747 46.9981 115.091 50.0314 115.925 51.6981C116.425 55.3647 117.325 63.4981 116.925 66.6981C116.425 70.6981 113.425 69.1981 113.425 66.6981C113.425 64.1981 111.147 58.9242 110.647 57.4242C110.361 56.5667 111.369 53.4242 110.647 50.9242C110.647 49.1504 111.29 48.8405 112.147 48.1981Z" fill="white" stroke="black" stroke-width="2"/>
<path d="M144.338 98.8413C137.138 98.8413 123.838 90.8413 120.338 85.8413C116.481 80.3306 111.905 27.1218 115.838 24.3413C137.647 8.92425 151.647 9.92423 173.647 24.9242C178.047 27.9242 173.838 83.8413 169.838 87.8413C165.838 91.8413 153.606 98.8413 150.838 98.8413C147.838 98.8413 151.538 98.8413 144.338 98.8413Z" fill="white" stroke="black" stroke-width="2" stroke-linejoin="round"/>
<path d="M125.647 47.4702C127.813 46.3036 133.347 44.6702 138.147 47.4702" stroke="black" stroke-width="2" stroke-linecap="round"/>
<path d="M151.647 47.4702C153.813 46.3036 159.347 44.6702 164.147 47.4702" stroke="black" stroke-width="2" stroke-linecap="round"/>
<path d="M132.647 80.9242C132.647 80.9242 136.147 85.4242 145.147 85.4242C154.147 85.4242 157.647 80.9242 157.647 80.9242" stroke="black" stroke-width="2" stroke-linecap="round" stroke-linejoin="round"/>
<path d="M144.197 53.9242C142.864 59.4242 140.597 70.7242 142.197 71.9242C143.797 73.1242 146.197 72.4242 147.197 71.9242" stroke="black" stroke-width="2" stroke-linecap="round" stroke-linejoin="round"/>
<path d="M114.647 51.4242C114.647 46.2576 116.155 38.2374 118.647 32.4242C120.147 28.9242 123.647 22.9242 126.147 26.4242C136.063 20.9242 147.647 20.4242 158.147 20.4242C163.647 21.9242 164.647 22.4242 167.647 24.4242C171.368 26.9049 174.147 40.4242 175.647 48.9242C176.647 37.4242 177.266 29.8073 175.647 22.9242C173.647 14.4242 171.951 11.6778 168.647 8.92423C165.647 6.42421 163.647 6.92422 160.647 9.92422C160.147 5.42422 164.147 3.42422 154.147 1.42422C151.647 0.924227 142.647 0.494422 144.147 2.42424C138.647 1.92424 134.056 2.90436 136.147 4.42423C129.147 4.92423 125.382 8.20722 127.147 8.92423C122.147 10.002 117.964 13.7931 119.647 14.4242C115.647 17.4242 114.432 20.9242 113.647 26.4242C112.576 33.9242 112.813 43.4242 114.647 51.4242Z" fill="white" stroke="black" stroke-width="2" stroke-linecap="round" stroke-linejoin="round"/>
</svg>

<svg width="231" height="343" fill="none" xmlns="http://www.w3.org/2000/svg"><path d="M223.925 324.424v-6.5h2.5l.5 8.5c-.5 1.5-2.5 2.5-4.5 4s-2-2-1.5-2c.4 0 2.166-2.666 3-4Z" stroke="#000" stroke-width="2"/><path d="M223.925 328.424v-6.5h2.5l.5 8.5c-.5 1.5-2.5 2.5-4.5 4s-2-2-1.5-2c.4 0 2.166-2.666 3-4Z" fill="#fff" stroke="#000" stroke-width="2"/><path d="M223.647 332.924v-6.5h2.5l.5 8.5c-.5 1.5-2.5 2.5-4.5 4s-2-2-1.5-2c.4 0 2.166-2.666 3-4Z" fill="#fff" stroke="#000" stroke-width="2"/><path d="M226.647 302.924c1.2-9.2-11.5-91-18-132-5.167 2.834-14.9 8.7-12.5 9.5 2.4.8 12.667 81.667 17.5 123l-3.5 14.5v12c.5 1.167 1.5 3 4 0l.045-.159c.99-3.462 2.111-7.386 1.455-10.341l6.5 3c1.333 3.334 3.5 8.5 3.5 10 0 .895-.833 4.334-.5 7.5.667 1 1 2 2.5.5 1.275-1.275 2-6.333 2-9v-12l-3-16.5Z" fill="#fff" stroke="#000" stroke-width="2"/><path d="M210.647 167.424c3.2-7.2-14-31.333-23-42.5l2.5 57c5.5-1.833 17.3-7.3 20.5-14.5ZM37.647 166.924c0 2.561-1.834 9.167-1 14 1 3.5 21.5 48 28 46 5.2-1.6 16.666-38.666 21-57.5 5.166-8.166 20.5-17.5 13.5 7-7.088 24.807-24.5 66.5-28 68s-7 1-7.5 1c-8.616 0-30.667-38.166-40.5-58-7-3.5-15-16-21.5-21-1.773-1.363.5-4 2-3 2.5 1.667 5.5 5 8.5 7 .865.577 2.5 0 2-1.5-5-7.5-9.6-12.9-10-14.5-.4-1.6 1-3.25 2.5-2.5 1 .5 11.12 14.127 11.5 14 1.5-.5 1.5-.5 1.5-1.5 0-1.414-10-15.5-11-17.5s2.5-3.5 3.5-2.5 6 11 11 17.5c.753.979 2 .763 2-1.5 0-1-2.5-7-6.5-14.5-.5-2.5 2-3.5 3.5-2 .633.949 4.5 8 7 14.173 1.735 2.933 3.171 4.984 3.5 4.327 1-2 2.542-10.042 4-11.5 2.5-2.5 7-1.5 4.5 1s-3.5 10.5-3.5 15Z" fill="#fff" stroke="#000" stroke-width="2"/><path d="M79.647 167.924c-2.8-4 15.833-31.666 29-45l-4 42c0 4.5.5 12.563-3.5 13-4 .438-16.12-2.315-21.5-10ZM137.147 89.924v25.5c5.167 2.667 15.9 5.3 17.5.5 1.6-4.8.667-21.166 0-26h-17.5Z" fill="#fff" stroke="#000" stroke-width="2"/><path d="M110.647 116.924c-12 12-10.314 153.243-8.147 218.076l90.5-14c-3-67.833-3.186-200.381-6.353-204.076-2.622-3.058-13.595-6.061-27.5-7.5-3 4.246-9.123 4.586-13 4.5-4.061-.09-9.5-.359-12-4.5-10.17.859-18.664 2.664-23.5 7.5Z" fill="#fff" stroke="#000" stroke-width="2" stroke-linecap="round" stroke-linejoin="round"/><path d="M179.147 46.424c-1.6-1.2-3.667 1.834-4.5 3.5-.5 3.667-1.4 11.8-1 15 .5 4 3.5 2.5 3.5 0s3-8.5 3.5-10 .5-7-1.5-8.5ZM112.147 48.198c1.6-1.2 2.944 1.833 3.778 3.5.5 3.667 1.4 11.8 1 15-.5 4-3.5 2.5-3.5 0s-2.278-7.774-2.778-9.274c-.286-.857.722-4 0-6.5 0-1.774.643-2.084 1.5-2.726Z" fill="#fff" stroke="#000" stroke-width="2"/><path d="M144.338 98.841c-7.2 0-20.5-8-24-13-3.857-5.51-8.433-58.72-4.5-61.5 21.809-15.417 35.809-14.417 57.809.583 4.4 3 .191 58.917-3.809 62.917s-16.232 11-19 11h-6.5Z" fill="#fff" stroke="#000" stroke-width="2" stroke-linejoin="round"/><path d="M125.647 47.47c2.166-1.166 7.7-2.8 12.5 0M151.647 47.47c2.166-1.166 7.7-2.8 12.5 0" stroke="#000" stroke-width="2" stroke-linecap="round"/><path d="M132.647 80.924s3.5 4.5 12.5 4.5 12.5-4.5 12.5-4.5M144.197 53.924c-1.333 5.5-3.6 16.8-2 18 1.6 1.2 4 .5 5 0" stroke="#000" stroke-width="2" stroke-linecap="round" stroke-linejoin="round"/><path d="M114.647 51.424c0-5.166 1.508-13.187 4-19 1.5-3.5 5-9.5 7.5-6 9.916-5.5 21.5-6 32-6 5.5 1.5 6.5 2 9.5 4 3.721 2.48 6.5 16 8 24.5 1-11.5 1.619-19.117 0-26-2-8.5-3.696-11.246-7-14-3-2.5-5-2-8 1-.5-4.5 3.5-6.5-6.5-8.5-2.5-.5-11.5-.93-10 1-5.5-.5-10.091.48-8 2-7 .5-10.765 3.783-9 4.5-5 1.078-9.183 4.87-7.5 5.5-4 3-5.215 6.5-6 12-1.071 7.5-.834 17 1 25Z" fill="#fff" stroke="#000" stroke-width="2" stroke-linecap="round" stroke-linejoin="round"/></svg>
